svg/picture.svg

<svg width="280" height="280" viewBox="0 0 280 280" fill="none" xmlns="http://www.w3.org/2000/svg">
<path fill-rule="evenodd" clip-rule="evenodd" d="M94.5274 110.92C105.987 110.92 115.279 101.629 115.279 90.1666C115.279 78.7056 105.987 69.4146 94.5274 69.4146C83.0664 69.4146 73.7744 78.7056 73.7744 90.1666C73.7744 101.629 83.0664 110.92 94.5274 110.92Z" fill="#1A1919"/>
<path fill-rule="evenodd" clip-rule="evenodd" d="M230.41 42.4513H134.472C134.302 46.2173 134.036 50.0013 133.751 53.7903H224.741V139.245L198.963 113.858C196.736 111.665 193.158 111.686 190.959 113.905L142.794 162.464C142.616 168.001 142.373 173.555 142.261 179.103L195.031 125.9L224.741 155.159V220.254H54.6612V197.281L94.4482 163.614L125.694 188.612C127.956 190.422 131.22 190.234 133.26 188.177L142.261 179.103C142.373 173.555 142.616 168.001 142.794 162.464L128.798 176.575L97.8882 151.846C95.7712 150.153 92.7532 150.196 90.6842 151.945L54.6612 182.427V53.7903H133.751C134.036 50.0013 134.302 46.2173 134.472 42.4513H48.9922C45.8612 42.4513 43.3232 44.9903 43.3232 48.1203V233.028C43.3232 236.159 45.8612 238.697 48.9922 238.697H230.41C233.541 238.697 236.079 236.159 236.079 233.028V48.1203C236.079 44.9903 233.541 42.4513 230.41 42.4513Z" fill="#1A1919"/>
</svg>

<svg width="280" height="280" viewBox="0 0 280 280" xmlns="http://www.w3.org/2000/svg">
    <g fill="#1A1918" fill-rule="evenodd">
        <path d="M94.527 110.92c11.46 0 20.752-9.291 20.752-20.753 0-11.461-9.292-20.752-20.752-20.752-11.46 0-20.753 9.29-20.753 20.752s9.292 20.753 20.753 20.753"/>
        <path d="M230.41 42.451h-95.938c-.17 3.766-.436 7.55-.72 11.34h90.99v85.454l-25.779-25.387a5.667 5.667 0 0 0-8.004.047l-48.165 48.56c-.178 5.536-.42 11.09-.533 16.638l52.77-53.203 29.71 29.26v65.094H54.661v-22.973l39.787-33.667 31.246 24.998a5.669 5.669 0 0 0 7.566-.435l9.001-9.074c.112-5.548.355-11.102.533-16.639l-13.996 14.111-30.91-24.729a5.672 5.672 0 0 0-7.204.1l-36.023 30.481V53.79h79.09c.285-3.789.551-7.573.721-11.339h-85.48a5.67 5.67 0 0 0-5.669 5.67v184.907a5.669 5.669 0 0 0 5.67 5.67H230.41a5.669 5.669 0 0 0 5.67-5.67V48.12a5.67 5.67 0 0 0-5.67-5.669"/>
    </g>
</svg>
